dist/img/news-tg.svg

<svg width="40" height="41" viewBox="0 0 40 41" fill="none" xmlns="http://www.w3.org/2000/svg">
<g clip-path="url(#clip0_1409_27849)">
<path d="M20.0039 0.18457C14.7008 0.18457 9.61016 2.29301 5.86328 6.04238C2.11254 9.79325 0.00494522 14.8801 0.00390625 20.1846C0.00390625 25.4868 2.11328 30.5774 5.86328 34.3268C9.61016 38.0761 14.7008 40.1846 20.0039 40.1846C25.307 40.1846 30.3977 38.0761 34.1445 34.3268C37.8945 30.5774 40.0039 25.4868 40.0039 20.1846C40.0039 14.8824 37.8945 9.79176 34.1445 6.04238C30.3977 2.29301 25.307 0.18457 20.0039 0.18457Z" fill="url(#paint0_linear_1409_27849)"/>
<path d="M9.05926 19.9717C14.8905 17.4317 18.778 15.757 20.7218 14.9479C26.278 12.6376 27.4311 12.2364 28.1843 12.2228C28.3499 12.2201 28.7186 12.2611 28.9593 12.4556C29.1593 12.6196 29.2155 12.8415 29.2436 12.9973C29.2686 13.1529 29.303 13.5076 29.2749 13.7845C28.9749 16.947 27.6718 24.6214 27.0093 28.1636C26.7311 29.6623 26.178 30.1648 25.6436 30.2139C24.4811 30.3207 23.5999 29.4464 22.4749 28.7092C20.7155 27.5551 19.7218 26.837 18.0124 25.7111C16.0374 24.4098 17.3186 23.6945 18.4436 22.5257C18.7374 22.2198 23.8561 17.5651 23.953 17.1429C23.9655 17.0901 23.978 16.8932 23.8593 16.7895C23.7436 16.6854 23.5718 16.7211 23.4468 16.7492C23.2686 16.7892 20.4593 18.6479 15.0093 22.3251C14.2124 22.8732 13.4905 23.1404 12.8405 23.1264C12.128 23.1111 10.753 22.7226 9.73113 22.3907C8.48113 21.9836 7.48426 21.7682 7.57176 21.0767C7.61551 20.7167 8.11238 20.3482 9.05926 19.9717Z" fill="white"/>
</g>
<defs>
<linearGradient id="paint0_linear_1409_27849" x1="2000" y1="0.18457" x2="2000" y2="4000.18" gradientUnits="userSpaceOnUse">
<stop stop-color="#2AABEE"/>
<stop offset="1" stop-color="#229ED9"/>
</linearGradient>
<clipPath id="clip0_1409_27849">
<rect width="40" height="40" fill="white" transform="translate(0 0.185547)"/>
</clipPath>
</defs>
</svg>

<svg width="40" height="41" viewBox="0 0 40 41" fill="none" xmlns="http://www.w3.org/2000/svg"><g clip-path="url(#clip0_1409_27849)"><path d="M20.004.185a20.006 20.006 0 00-20 20 20.006 20.006 0 0020 20 20.006 20.006 0 0020-20 20.006 20.006 0 00-20-20z" fill="url(#paint0_linear_1409_27849)"/><path d="M9.06 19.972c5.83-2.54 9.718-4.215 11.662-5.024 5.556-2.31 6.71-2.712 7.462-2.725.166-.003.535.038.775.233.2.164.256.386.285.541.025.156.059.51.03.787-.3 3.163-1.602 10.837-2.265 14.38-.278 1.498-.831 2-1.365 2.05-1.163.107-2.044-.768-3.17-1.505-1.759-1.154-2.752-1.872-4.462-2.998-1.975-1.301-.693-2.016.432-3.185.293-.306 5.412-4.96 5.509-5.383.012-.053.025-.25-.094-.354-.115-.104-.287-.068-.412-.04-.178.04-2.988 1.899-8.438 5.576-.797.548-1.518.815-2.168.801-.713-.015-2.088-.403-3.11-.735-1.25-.407-2.247-.623-2.16-1.314.045-.36.541-.729 1.488-1.105z" fill="#fff"/></g><defs><linearGradient id="paint0_linear_1409_27849" x1="2000" y1=".185" x2="2000" y2="4000.18" gradientUnits="userSpaceOnUse"><stop stop-color="#2AABEE"/><stop offset="1" stop-color="#229ED9"/></linearGradient><clipPath id="clip0_1409_27849"><path fill="#fff" transform="translate(0 .186)" d="M0 0h40v40H0z"/></clipPath></defs></svg>
